packages/bezier-icons/icons/ai-off.svg

<svg width="24" height="24" viewBox="0 0 24 24" fill="none" xmlns="http://www.w3.org/2000/svg">
<path fill-rule="evenodd" clip-rule="evenodd" d="M2.70711 2.70708C2.31658 3.0976 2.31658 3.73077 2.70711 4.12129L19.6777 21.0919C20.0682 21.4824 20.7014 21.4824 21.0919 21.0919C21.4824 20.7013 21.4824 20.0682 21.0919 19.6776L20.5204 19.1062C21.4232 18.3728 22 17.2537 22 16V7.99997C22 5.79083 20.2091 3.99997 18 3.99997H6C5.81393 3.99997 5.63082 4.01267 5.45151 4.03726L4.12132 2.70708C3.7308 2.31655 3.09763 2.31655 2.70711 2.70708ZM8.41421 6.99997L12.7593 11.345L11.9707 7.40191C11.9239 7.1682 11.7187 6.99997 11.4804 6.99997H10.8903H9.89027H8.89027H8.41421ZM14.8903 13.476L16.8903 15.476V7.00009H14.8903V13.476ZM2 7.99997C2 7.12508 2.28088 6.31579 2.75739 5.65736L7.25856 10.1585L6.00988 16.4019C5.948 16.7113 6.18465 17 6.50017 17H7.48037C7.71871 17 7.92391 16.8317 7.97066 16.598L8.29027 15H11.4903L11.8099 16.598C11.8566 16.8317 12.0618 17 12.3002 17H13.2804C13.5058 17 13.6909 16.8527 13.7557 16.6557L17.1 20H6C3.79086 20 2 18.2091 2 16V7.99997ZM8.69027 13L8.92522 11.8252L10.1 13H8.69027Z" fill="#313234"/>
</svg>

<svg xmlns="http://www.w3.org/2000/svg" width="24" height="24" fill="none" viewBox="0 0 24 24"><path fill="#313234" fill-rule="evenodd" d="M2.707 2.707a1 1 0 0 0 0 1.414l16.97 16.97a1 1 0 0 0 1.415-1.413l-.572-.572A4 4 0 0 0 22 16V8a4 4 0 0 0-4-4H6q-.28 0-.548.037l-1.33-1.33a1 1 0 0 0-1.415 0M8.414 7l4.345 4.345-.788-3.943A.5.5 0 0 0 11.48 7H8.413m6.476 6.476 2 2V7h-2zM2 8c0-.875.28-1.684.757-2.343L7.26 10.16l-1.25 6.243A.5.5 0 0 0 6.5 17h.98a.5.5 0 0 0 .49-.402L8.29 15h3.2l.32 1.598a.5.5 0 0 0 .49.402h.98a.5.5 0 0 0 .476-.344L17.1 20H6a4 4 0 0 1-4-4zm6.69 5 .235-1.175L10.1 13z" clip-rule="evenodd"/></svg>
